modules/feathericon/icons/intersect.svg

<?xml version="1.0" encoding="UTF-8"?>
<svg width="24px" height="24px" viewBox="0 0 24 24" version="1.1" xmlns="http://www.w3.org/2000/svg" xmlns:xlink="http://www.w3.org/1999/xlink">
    <!-- Generator: sketchtool 52.2 (67145) - http://www.bohemiancoding.com/sketch -->
    <title>intersect</title>
    <desc>Created with sketchtool.</desc>
    <g id="production" stroke="none" stroke-width="1" fill="none" fill-rule="evenodd">
        <g id="intersect" fill="#000000">
            <path d="M15,15 L15,19 C15,20.1045695 14.1045695,21 13,21 L5,21 C3.8954305,21 3,20.1045695 3,19 L3,11 C3,9.8954305 3.8954305,9 5,9 L9,9 L9,5 C9,3.8954305 9.8954305,3 11,3 L19,3 C20.1045695,3 21,3.8954305 21,5 L21,13 C21,14.1045695 20.1045695,15 19,15 L15,15 Z M10,14 L14,14 L14,10 L10,10 L10,14 Z" id="Shape"></path>
        </g>
    </g>
</svg>

<svg width="24" height="24" viewBox="0 0 24 24" xmlns="http://www.w3.org/2000/svg"><path d="M15 15v4a2 2 0 0 1-2 2H5a2 2 0 0 1-2-2v-8a2 2 0 0 1 2-2h4V5a2 2 0 0 1 2-2h8a2 2 0 0 1 2 2v8a2 2 0 0 1-2 2h-4zm-5-1h4v-4h-4v4z" fill="#000" fill-rule="evenodd"/></svg>
